app/assets/images/icons/active/ferry.svg

<?xml version="1.0" encoding="UTF-8" standalone="no"?>
<svg width="32px" height="232px" viewBox="0 0 32 232" version="1.1" xmlns="http://www.w3.org/2000/svg" xmlns:xlink="http://www.w3.org/1999/xlink" xmlns:sketch="http://www.bohemiancoding.com/sketch/ns">
    <title>ferry</title>
    <description>Created with Sketch (http://www.bohemiancoding.com/sketch)</description>
    <defs></defs>
    <g id="Transport" stroke="none" stroke-width="1" fill="none" fill-rule="evenodd" sketch:type="MSPage">
        <path d="M10.073,126.862319 C10.073,126.384259 10.528,126.037037 11.149,126.037037 L13.381,126.037037 L13.381,125.075886 C13.381,124.480072 13.865,124 14.458,124 L16.106,124 C16.7,124 17.183,124.480072 17.183,125.075886 L17.183,126.037037 L19.409,126.037037 C20.034,126.037037 20.483,126.379227 20.483,126.849235 L20.483,128.778583 C20.483,129.376409 20.03,129.858494 19.469,129.858494 C18.952,129.858494 18.198,129.438808 18.198,128.778583 L18.198,128.283414 L12.276,128.324678 L12.338,128.778583 C12.338,129.438808 11.598,129.858494 11.093,129.858494 C10.53,129.858494 10.073,129.376409 10.073,128.778583 L10.073,126.862319 L10.073,126.862319 L10.073,126.862319 L10.073,126.862319 Z M5.595,132.470209 C5.733,132.220612 6.022,132.075684 6.397,132.075684 L13.556,130.838768 C14.233,130.830717 14.649,131.184984 14.73,131.644928 L14.742,131.644928 L14.742,133.645733 C14.748,133.651771 14.838,133.718196 14.987,133.718196 L15.577,133.718196 C15.725,133.718196 15.826,133.649758 15.838,133.620572 L15.832,132.65942 L15.848,131.644928 C15.925,131.184984 16.39,130.833736 16.95,130.833736 L24.217,132.080717 L24.239,132.080717 C24.577,132.080717 24.879,132.213567 25.016,132.4531 C25.119,132.628221 25.122,132.845612 25.02,133.03281 L24.879,133.279388 C24.748,133.506844 24.567,133.801731 24.504,133.925523 C24.407,134.107689 24.208,134.465982 24.067,134.725644 L19.184,143.307568 L18.823,143.025765 C18.147,142.499396 17.223,141.783816 15.87,141.725443 L15.731,141.719404 L15.706,141.719404 C14.429,141.719404 13.428,142.041465 12.603,142.67653 C12.419,142.804348 12.269,142.934179 12.135,143.055958 L11.807,143.36091 L11.517,143.01872 C10.808,142.159219 10.256,141.111514 9.819,140.274155 C9.659,139.969203 9.516,139.702496 9.394,139.496176 C8.932,138.721216 8.567,138.102254 8.229,137.518519 C7.633,136.502013 7.115,135.619364 6.282,134.261675 C5.963,133.746377 5.626,133.172705 5.626,133.172705 C5.485,132.944243 5.47,132.69062 5.595,132.470209 L5.595,132.470209 Z M26.943,147.203502 C26.752,147.203502 26.594,147.152174 26.487,147.125 C26.043,146.981079 25.612,146.934783 25.394,146.91868 L25.219,146.914654 C24.769,146.914654 24.383,147.024356 23.623,147.622182 L23.528,147.698671 C22.825,148.251208 21.86,149 20.537,149 C20.348,149 20.143,148.997987 19.931,148.952697 C18.838,148.781602 18.018,148.152576 17.358,147.640298 C16.766,147.176329 16.366,146.881441 15.969,146.863325 L15.778,146.857287 C15.282,146.857287 14.892,146.97504 14.557,147.224638 L14.161,147.539654 C13.703,147.940217 13.043,148.502818 12.098,148.7343 C11.724,148.819847 11.411,148.860105 11.118,148.860105 C10.11,148.860105 9.344,148.379026 8.361,147.553744 C7.809,147.089775 6.313,146.816023 5.536,147.062601 C5.416,147.097826 5.252,147.137077 5.055,147.137077 C4.2,147.137077 3.5,146.432568 3.5,145.561997 C3.5,144.889694 3.915,144.305958 4.549,144.083535 C4.577,144.070451 4.602,144.062399 4.631,144.048309 C6.491,143.490741 8.395,143.832931 9.752,144.968196 C10.397,145.512681 10.958,145.758253 11.386,145.658615 C11.592,145.613325 11.873,145.375805 12.172,145.124195 L12.323,145.002415 C12.451,144.899758 12.579,144.798108 12.713,144.703502 C13.571,144.037238 14.614,143.706119 15.866,143.706119 L16.09,143.708132 C17.517,143.780596 18.469,144.524356 19.235,145.122182 C19.678,145.467391 20.096,145.794485 20.461,145.854871 L20.475,145.854871 C20.793,145.854871 21.142,145.588164 21.617,145.210749 C22.64,144.408615 23.827,143.655797 25.612,143.785628 C25.959,143.810789 26.633,143.893317 27.401,144.119767 C28.069,144.347222 28.5,144.947061 28.5,145.617351 C28.5,146.489936 27.805,147.203502 26.943,147.203502 L26.943,147.203502 Z M26.943,147.203502" id="ferry--white" fill="#206FAC" sketch:type="MSShapeGroup"></path>
        <path d="M10.073,86.8623188 C10.073,86.3842593 10.528,86.037037 11.149,86.037037 L13.381,86.037037 L13.381,85.0758857 C13.381,84.4800725 13.865,84 14.458,84 L16.106,84 C16.7,84 17.183,84.4800725 17.183,85.0758857 L17.183,86.037037 L19.409,86.037037 C20.034,86.037037 20.483,86.3792271 20.483,86.8492351 L20.483,88.7785829 C20.483,89.376409 20.03,89.8584944 19.469,89.8584944 C18.952,89.8584944 18.198,89.4388084 18.198,88.7785829 L18.198,88.2834138 L12.276,88.3246779 L12.338,88.7785829 C12.338,89.4388084 11.598,89.8584944 11.093,89.8584944 C10.53,89.8584944 10.073,89.376409 10.073,88.7785829 L10.073,86.8623188 L10.073,86.8623188 L10.073,86.8623188 L10.073,86.8623188 Z M5.595,92.4702093 C5.733,92.2206119 6.022,92.0756844 6.397,92.0756844 L13.556,90.8387681 C14.233,90.8307166 14.649,91.1849839 14.73,91.6449275 L14.742,91.6449275 L14.742,93.6457327 C14.748,93.6517713 14.838,93.7181965 14.987,93.7181965 L15.577,93.7181965 C15.725,93.7181965 15.826,93.6497585 15.838,93.6205717 L15.832,92.6594203 L15.848,91.6449275 C15.925,91.1849839 16.39,90.8337359 16.95,90.8337359 L24.217,92.0807166 L24.239,92.0807166 C24.577,92.0807166 24.879,92.2135668 25.016,92.4530998 C25.119,92.6282206 25.122,92.8456119 25.02,93.03281 L24.879,93.2793881 C24.748,93.5068438 24.567,93.8017311 24.504,93.9255233 C24.407,94.1076892 24.208,94.4659823 24.067,94.7256441 L19.184,103.307568 L18.823,103.025765 C18.147,102.499396 17.223,101.783816 15.87,101.725443 L15.731,101.719404 L15.706,101.719404 C14.429,101.719404 13.428,102.041465 12.603,102.67653 C12.419,102.804348 12.269,102.934179 12.135,103.055958 L11.807,103.36091 L11.517,103.01872 C10.808,102.159219 10.256,101.111514 9.819,100.274155 C9.659,99.9692029 9.516,99.702496 9.394,99.4961755 C8.932,98.7212158 8.567,98.1022544 8.229,97.5185185 C7.633,96.5020129 7.115,95.6193639 6.282,94.2616747 C5.963,93.7463768 5.626,93.1727053 5.626,93.1727053 C5.485,92.9442432 5.47,92.69062 5.595,92.4702093 L5.595,92.4702093 Z M26.943,107.203502 C26.752,107.203502 26.594,107.152174 26.487,107.125 C26.043,106.981079 25.612,106.934783 25.394,106.91868 L25.219,106.914654 C24.769,106.914654 24.383,107.024356 23.623,107.622182 L23.528,107.698671 C22.825,108.251208 21.86,109 20.537,109 C20.348,109 20.143,108.997987 19.931,108.952697 C18.838,108.781602 18.018,108.152576 17.358,107.640298 C16.766,107.176329 16.366,106.881441 15.969,106.863325 L15.778,106.857287 C15.282,106.857287 14.892,106.97504 14.557,107.224638 L14.161,107.539654 C13.703,107.940217 13.043,108.502818 12.098,108.7343 C11.724,108.819847 11.411,108.860105 11.118,108.860105 C10.11,108.860105 9.344,108.379026 8.361,107.553744 C7.809,107.089775 6.313,106.816023 5.536,107.062601 C5.416,107.097826 5.252,107.137077 5.055,107.137077 C4.2,107.137077 3.5,106.432568 3.5,105.561997 C3.5,104.889694 3.915,104.305958 4.549,104.083535 C4.577,104.070451 4.602,104.062399 4.631,104.048309 C6.491,103.490741 8.395,103.832931 9.752,104.968196 C10.397,105.512681 10.958,105.758253 11.386,105.658615 C11.592,105.613325 11.873,105.375805 12.172,105.124195 L12.323,105.002415 C12.451,104.899758 12.579,104.798108 12.713,104.703502 C13.571,104.037238 14.614,103.706119 15.866,103.706119 L16.09,103.708132 C17.517,103.780596 18.469,104.524356 19.235,105.122182 C19.678,105.467391 20.096,105.794485 20.461,105.854871 L20.475,105.854871 C20.793,105.854871 21.142,105.588164 21.617,105.210749 C22.64,104.408615 23.827,103.655797 25.612,103.785628 C25.959,103.810789 26.633,103.893317 27.401,104.119767 C28.069,104.347222 28.5,104.947061 28.5,105.617351 C28.5,106.489936 27.805,107.203502 26.943,107.203502 L26.943,107.203502 Z M26.943,107.203502" id="ferry--subdued-grey" fill="#FFFFFF" sketch:type="MSShapeGroup"></path>
        <path d="M10.073,46.8623188 C10.073,46.3842593 10.528,46.037037 11.149,46.037037 L13.381,46.037037 L13.381,45.0758857 C13.381,44.4800725 13.865,44 14.458,44 L16.106,44 C16.7,44 17.183,44.4800725 17.183,45.0758857 L17.183,46.037037 L19.409,46.037037 C20.034,46.037037 20.483,46.3792271 20.483,46.8492351 L20.483,48.7785829 C20.483,49.376409 20.03,49.8584944 19.469,49.8584944 C18.952,49.8584944 18.198,49.4388084 18.198,48.7785829 L18.198,48.2834138 L12.276,48.3246779 L12.338,48.7785829 C12.338,49.4388084 11.598,49.8584944 11.093,49.8584944 C10.53,49.8584944 10.073,49.376409 10.073,48.7785829 L10.073,46.8623188 L10.073,46.8623188 L10.073,46.8623188 L10.073,46.8623188 Z M5.595,52.4702093 C5.733,52.2206119 6.022,52.0756844 6.397,52.0756844 L13.556,50.8387681 C14.233,50.8307166 14.649,51.1849839 14.73,51.6449275 L14.742,51.6449275 L14.742,53.6457327 C14.748,53.6517713 14.838,53.7181965 14.987,53.7181965 L15.577,53.7181965 C15.725,53.7181965 15.826,53.6497585 15.838,53.6205717 L15.832,52.6594203 L15.848,51.6449275 C15.925,51.1849839 16.39,50.8337359 16.95,50.8337359 L24.217,52.0807166 L24.239,52.0807166 C24.577,52.0807166 24.879,52.2135668 25.016,52.4530998 C25.119,52.6282206 25.122,52.8456119 25.02,53.03281 L24.879,53.2793881 C24.748,53.5068438 24.567,53.8017311 24.504,53.9255233 C24.407,54.1076892 24.208,54.4659823 24.067,54.7256441 L19.184,63.3075684 L18.823,63.0257649 C18.147,62.4993961 17.223,61.7838164 15.87,61.7254428 L15.731,61.7194042 L15.706,61.7194042 C14.429,61.7194042 13.428,62.0414654 12.603,62.6765298 C12.419,62.8043478 12.269,62.9341787 12.135,63.0559581 L11.807,63.3609098 L11.517,63.0187198 C10.808,62.159219 10.256,61.1115137 9.819,60.2741546 C9.659,59.9692029 9.516,59.702496 9.394,59.4961755 C8.932,58.7212158 8.567,58.1022544 8.229,57.5185185 C7.633,56.5020129 7.115,55.6193639 6.282,54.2616747 C5.963,53.7463768 5.626,53.1727053 5.626,53.1727053 C5.485,52.9442432 5.47,52.69062 5.595,52.4702093 L5.595,52.4702093 Z M26.943,67.2035024 C26.752,67.2035024 26.594,67.1521739 26.487,67.125 C26.043,66.9810789 25.612,66.9347826 25.394,66.9186795 L25.219,66.9146538 C24.769,66.9146538 24.383,67.0243559 23.623,67.622182 L23.528,67.6986715 C22.825,68.2512077 21.86,69 20.537,69 C20.348,69 20.143,68.9979871 19.931,68.9526973 C18.838,68.7816023 18.018,68.1525765 17.358,67.6402979 C16.766,67.1763285 16.366,66.8814412 15.969,66.8633253 L15.778,66.8572866 C15.282,66.8572866 14.892,66.9750403 14.557,67.2246377 L14.161,67.5396538 C13.703,67.9402174 13.043,68.502818 12.098,68.7342995 C11.724,68.819847 11.411,68.8601047 11.118,68.8601047 C10.11,68.8601047 9.344,68.3790258 8.361,67.553744 C7.809,67.0897746 6.313,66.8160225 5.536,67.0626006 C5.416,67.0978261 5.252,67.1370773 5.055,67.1370773 C4.2,67.1370773 3.5,66.4325684 3.5,65.5619968 C3.5,64.889694 3.915,64.3059581 4.549,64.0835346 C4.577,64.0704509 4.602,64.0623994 4.631,64.0483092 C6.491,63.4907407 8.395,63.8329308 9.752,64.9681965 C10.397,65.5126812 10.958,65.7582528 11.386,65.6586151 C11.592,65.6133253 11.873,65.3758052 12.172,65.1241948 L12.323,65.0024155 C12.451,64.8997585 12.579,64.7981079 12.713,64.7035024 C13.571,64.0372383 14.614,63.7061192 15.866,63.7061192 L16.09,63.708132 C17.517,63.7805958 18.469,64.5243559 19.235,65.122182 C19.678,65.4673913 20.096,65.7944847 20.461,65.8548712 L20.475,65.8548712 C20.793,65.8548712 21.142,65.5881643 21.617,65.2107488 C22.64,64.4086151 23.827,63.6557971 25.612,63.785628 C25.959,63.810789 26.633,63.8933172 27.401,64.1197665 C28.069,64.3472222 28.5,64.9470612 28.5,65.617351 C28.5,66.4899356 27.805,67.2035024 26.943,67.2035024 L26.943,67.2035024 Z M26.943,67.2035024" id="ferry--body-grey" fill="#67737B" sketch:type="MSShapeGroup"></path>
        <path d="M10.073,6.86231884 C10.073,6.38425926 10.528,6.03703704 11.149,6.03703704 L13.381,6.03703704 L13.381,5.07588567 C13.381,4.48007246 13.865,4 14.458,4 L16.106,4 C16.7,4 17.183,4.48007246 17.183,5.07588567 L17.183,6.03703704 L19.409,6.03703704 C20.034,6.03703704 20.483,6.37922705 20.483,6.8492351 L20.483,8.77858293 C20.483,9.37640902 20.03,9.85849436 19.469,9.85849436 C18.952,9.85849436 18.198,9.43880837 18.198,8.77858293 L18.198,8.28341385 L12.276,8.32467794 L12.338,8.77858293 C12.338,9.43880837 11.598,9.85849436 11.093,9.85849436 C10.53,9.85849436 10.073,9.37640902 10.073,8.77858293 L10.073,6.86231884 L10.073,6.86231884 L10.073,6.86231884 L10.073,6.86231884 Z M5.595,12.4702093 C5.733,12.2206119 6.022,12.0756844 6.397,12.0756844 L13.556,10.8387681 C14.233,10.8307166 14.649,11.1849839 14.73,11.6449275 L14.742,11.6449275 L14.742,13.6457327 C14.748,13.6517713 14.838,13.7181965 14.987,13.7181965 L15.577,13.7181965 C15.725,13.7181965 15.826,13.6497585 15.838,13.6205717 L15.832,12.6594203 L15.848,11.6449275 C15.925,11.1849839 16.39,10.8337359 16.95,10.8337359 L24.217,12.0807166 L24.239,12.0807166 C24.577,12.0807166 24.879,12.2135668 25.016,12.4530998 C25.119,12.6282206 25.122,12.8456119 25.02,13.03281 L24.879,13.2793881 C24.748,13.5068438 24.567,13.8017311 24.504,13.9255233 C24.407,14.1076892 24.208,14.4659823 24.067,14.7256441 L19.184,23.3075684 L18.823,23.0257649 C18.147,22.4993961 17.223,21.7838164 15.87,21.7254428 L15.731,21.7194042 L15.706,21.7194042 C14.429,21.7194042 13.428,22.0414654 12.603,22.6765298 C12.419,22.8043478 12.269,22.9341787 12.135,23.0559581 L11.807,23.3609098 L11.517,23.0187198 C10.808,22.159219 10.256,21.1115137 9.819,20.2741546 C9.659,19.9692029 9.516,19.702496 9.394,19.4961755 C8.932,18.7212158 8.567,18.1022544 8.229,17.5185185 C7.633,16.5020129 7.115,15.6193639 6.282,14.2616747 C5.963,13.7463768 5.626,13.1727053 5.626,13.1727053 C5.485,12.9442432 5.47,12.69062 5.595,12.4702093 L5.595,12.4702093 Z M26.943,27.2035024 C26.752,27.2035024 26.594,27.1521739 26.487,27.125 C26.043,26.9810789 25.612,26.9347826 25.394,26.9186795 L25.219,26.9146538 C24.769,26.9146538 24.383,27.0243559 23.623,27.622182 L23.528,27.6986715 C22.825,28.2512077 21.86,29 20.537,29 C20.348,29 20.143,28.9979871 19.931,28.9526973 C18.838,28.7816023 18.018,28.1525765 17.358,27.6402979 C16.766,27.1763285 16.366,26.8814412 15.969,26.8633253 L15.778,26.8572866 C15.282,26.8572866 14.892,26.9750403 14.557,27.2246377 L14.161,27.5396538 C13.703,27.9402174 13.043,28.502818 12.098,28.7342995 C11.724,28.819847 11.411,28.8601047 11.118,28.8601047 C10.11,28.8601047 9.344,28.3790258 8.361,27.553744 C7.809,27.0897746 6.313,26.8160225 5.536,27.0626006 C5.416,27.0978261 5.252,27.1370773 5.055,27.1370773 C4.2,27.1370773 3.5,26.4325684 3.5,25.5619968 C3.5,24.889694 3.915,24.3059581 4.549,24.0835346 C4.577,24.0704509 4.602,24.0623994 4.631,24.0483092 C6.491,23.4907407 8.395,23.8329308 9.752,24.9681965 C10.397,25.5126812 10.958,25.7582528 11.386,25.6586151 C11.592,25.6133253 11.873,25.3758052 12.172,25.1241948 L12.323,25.0024155 C12.451,24.8997585 12.579,24.7981079 12.713,24.7035024 C13.571,24.0372383 14.614,23.7061192 15.866,23.7061192 L16.09,23.708132 C17.517,23.7805958 18.469,24.5243559 19.235,25.122182 C19.678,25.4673913 20.096,25.7944847 20.461,25.8548712 L20.475,25.8548712 C20.793,25.8548712 21.142,25.5881643 21.617,25.2107488 C22.64,24.4086151 23.827,23.6557971 25.612,23.785628 C25.959,23.810789 26.633,23.8933172 27.401,24.1197665 C28.069,24.3472222 28.5,24.9470612 28.5,25.617351 C28.5,26.4899356 27.805,27.2035024 26.943,27.2035024 L26.943,27.2035024 Z M26.943,27.2035024" id="ferry--title-grey" fill="#3A434E" sketch:type="MSShapeGroup"></path>
    </g>
</svg>

<svg width="32" height="232" viewBox="0 0 32 232" xmlns="http://www.w3.org/2000/svg" xmlns:sketch="http://www.bohemiancoding.com/sketch/ns"><title>ferry</title><g sketch:type="MSPage" fill="none"><path d="M10.073 126.862c0-.478.455-.825 1.076-.825h2.232v-.961c0-.596.484-1.076 1.077-1.076h1.648c.594 0 1.077.48 1.077 1.076v.961h2.226c.625 0 1.074.342 1.074.812v1.929c0 .598-.453 1.08-1.014 1.08-.517 0-1.271-.42-1.271-1.08v-.495l-5.922.041.062.454c0 .66-.74 1.08-1.245 1.08-.563 0-1.02-.482-1.02-1.08v-1.916zm-4.478 5.608c.138-.25.427-.395.802-.395l7.159-1.237c.677-.008 1.093.346 1.174.806h.012v2.001c.006.006.096.072.245.072h.59c.148 0 .249-.068.261-.098l-.006-.961.016-1.014c.077-.46.542-.811 1.102-.811l7.267 1.247h.022c.338 0 .64.133.777.372.103.175.106.393.004.58l-.141.247-.375.646-.437.8-4.883 8.582-.361-.282c-.676-.526-1.6-1.242-2.953-1.3l-.139-.006h-.025c-1.277 0-2.278.322-3.103.957-.184.128-.334.258-.468.379l-.328.305-.29-.342c-.709-.86-1.261-1.907-1.698-2.745-.16-.305-.303-.572-.425-.778-.462-.775-.827-1.394-1.165-1.978-.596-1.017-1.114-1.899-1.947-3.257-.319-.515-.656-1.089-.656-1.089-.141-.228-.156-.482-.031-.702zm21.348 14.733c-.191 0-.349-.051-.456-.079-.444-.144-.875-.19-1.093-.206l-.175-.004c-.45 0-.836.11-1.596.708l-.095.076c-.703.553-1.668 1.301-2.991 1.301-.189 0-.394-.002-.606-.047-1.093-.171-1.913-.8-2.573-1.312-.592-.464-.992-.759-1.389-.777l-.191-.006c-.496 0-.886.118-1.221.367l-.396.315c-.458.401-1.118.963-2.063 1.195-.374.086-.687.126-.98.126-1.008 0-1.774-.481-2.757-1.306-.552-.464-2.048-.738-2.825-.491-.12.035-.284.074-.481.074-.855 0-1.555-.705-1.555-1.575 0-.672.415-1.256 1.049-1.478l.082-.035c1.86-.558 3.764-.215 5.121.92.645.544 1.206.79 1.634.69.206-.045.487-.283.786-.534l.151-.122.39-.299c.858-.666 1.901-.997 3.153-.997l.224.002c1.427.072 2.379.816 3.145 1.414.443.345.861.672 1.226.733h.014c.318 0 .667-.267 1.142-.644 1.023-.802 2.21-1.555 3.995-1.425.347.025 1.021.108 1.789.334.668.227 1.099.827 1.099 1.498 0 .873-.695 1.586-1.557 1.586zm0 0" fill="#206FAC" sketch:type="MSShapeGroup"/><path d="M10.073 86.862c0-.478.455-.825 1.076-.825h2.232v-.961c0-.596.484-1.076 1.077-1.076h1.648c.594 0 1.077.48 1.077 1.076v.961h2.226c.625 0 1.074.342 1.074.812v1.929c0 .598-.453 1.08-1.014 1.08-.517 0-1.271-.42-1.271-1.08v-.495l-5.922.041.062.454c0 .66-.74 1.08-1.245 1.08-.563 0-1.02-.482-1.02-1.08v-1.916zm-4.478 5.608c.138-.25.427-.395.802-.395l7.159-1.237c.677-.008 1.093.346 1.174.806h.012v2.001c.006.006.096.072.245.072h.59c.148 0 .249-.068.261-.098l-.006-.961.016-1.014c.077-.46.542-.811 1.102-.811l7.267 1.247h.022c.338 0 .64.133.777.372.103.175.106.393.004.58l-.141.247-.375.646-.437.8-4.883 8.582-.361-.282c-.676-.526-1.6-1.242-2.953-1.3l-.139-.006h-.025c-1.277 0-2.278.322-3.103.957-.184.128-.334.258-.468.379l-.328.305-.29-.342c-.709-.86-1.261-1.907-1.698-2.745-.16-.305-.303-.572-.425-.778-.462-.775-.827-1.394-1.165-1.978-.596-1.017-1.114-1.899-1.947-3.257-.319-.515-.656-1.089-.656-1.089-.141-.228-.156-.482-.031-.702zm21.348 14.733c-.191 0-.349-.051-.456-.079-.444-.144-.875-.19-1.093-.206l-.175-.004c-.45 0-.836.11-1.596.708l-.095.076c-.703.553-1.668 1.301-2.991 1.301-.189 0-.394-.002-.606-.047-1.093-.171-1.913-.8-2.573-1.312-.592-.464-.992-.759-1.389-.777l-.191-.006c-.496 0-.886.118-1.221.367l-.396.315c-.458.401-1.118.963-2.063 1.195-.374.086-.687.126-.98.126-1.008 0-1.774-.481-2.757-1.306-.552-.464-2.048-.738-2.825-.491-.12.035-.284.074-.481.074-.855 0-1.555-.705-1.555-1.575 0-.672.415-1.256 1.049-1.478l.082-.035c1.86-.558 3.764-.215 5.121.92.645.544 1.206.79 1.634.69.206-.045.487-.283.786-.534l.151-.122.39-.299c.858-.666 1.901-.997 3.153-.997l.224.002c1.427.072 2.379.816 3.145 1.414.443.345.861.672 1.226.733h.014c.318 0 .667-.267 1.142-.644 1.023-.802 2.21-1.555 3.995-1.425.347.025 1.021.108 1.789.334.668.227 1.099.827 1.099 1.498 0 .873-.695 1.586-1.557 1.586zm0 0" fill="#fff" sketch:type="MSShapeGroup"/><path d="M10.073 46.862c0-.478.455-.825 1.076-.825h2.232v-.961c0-.596.484-1.076 1.077-1.076h1.648c.594 0 1.077.48 1.077 1.076v.961h2.226c.625 0 1.074.342 1.074.812v1.929c0 .598-.453 1.08-1.014 1.08-.517 0-1.271-.42-1.271-1.08v-.495l-5.922.041.062.454c0 .66-.74 1.08-1.245 1.08-.563 0-1.02-.482-1.02-1.08v-1.916zm-4.478 5.608c.138-.25.427-.395.802-.395l7.159-1.237c.677-.008 1.093.346 1.174.806h.012v2.001c.006.006.096.072.245.072h.59c.148 0 .249-.068.261-.098l-.006-.961.016-1.014c.077-.46.542-.811 1.102-.811l7.267 1.247h.022c.338 0 .64.133.777.372.103.175.106.393.004.58l-.141.247-.375.646-.437.8-4.883 8.582-.361-.282c-.676-.526-1.6-1.242-2.953-1.3l-.139-.006h-.025c-1.277 0-2.278.322-3.103.957-.184.128-.334.258-.468.379l-.328.305-.29-.342c-.709-.86-1.261-1.907-1.698-2.745-.16-.305-.303-.572-.425-.778-.462-.775-.827-1.394-1.165-1.978-.596-1.017-1.114-1.899-1.947-3.257-.319-.515-.656-1.089-.656-1.089-.141-.228-.156-.482-.031-.702zm21.348 14.733c-.191 0-.349-.051-.456-.079-.444-.144-.875-.19-1.093-.206l-.175-.004c-.45 0-.836.11-1.596.708l-.095.076c-.703.553-1.668 1.301-2.991 1.301-.189 0-.394-.002-.606-.047-1.093-.171-1.913-.8-2.573-1.312-.592-.464-.992-.759-1.389-.777l-.191-.006c-.496 0-.886.118-1.221.367l-.396.315c-.458.401-1.118.963-2.063 1.195-.374.086-.687.126-.98.126-1.008 0-1.774-.481-2.757-1.306-.552-.464-2.048-.738-2.825-.491-.12.035-.284.074-.481.074-.855 0-1.555-.705-1.555-1.575 0-.672.415-1.256 1.049-1.478l.082-.035c1.86-.558 3.764-.215 5.121.92.645.544 1.206.79 1.634.69.206-.045.487-.283.786-.534l.151-.122.39-.299c.858-.666 1.901-.997 3.153-.997l.224.002c1.427.072 2.379.816 3.145 1.414.443.345.861.672 1.226.733h.014c.318 0 .667-.267 1.142-.644 1.023-.802 2.21-1.555 3.995-1.425.347.025 1.021.108 1.789.334.668.227 1.099.827 1.099 1.498 0 .873-.695 1.586-1.557 1.586zm0 0" fill="#67737B" sketch:type="MSShapeGroup"/><path d="M10.073 6.862c0-.478.455-.825 1.076-.825h2.232v-.961c0-.596.484-1.076 1.077-1.076h1.648c.594 0 1.077.48 1.077 1.076v.961h2.226c.625 0 1.074.342 1.074.812v1.929c0 .598-.453 1.08-1.014 1.08-.517 0-1.271-.42-1.271-1.08v-.495l-5.922.041.062.454c0 .66-.74 1.08-1.245 1.08-.563 0-1.02-.482-1.02-1.08v-1.916zm-4.478 5.608c.138-.25.427-.395.802-.395l7.159-1.237c.677-.008 1.093.346 1.174.806h.012v2.001c.006.006.096.072.245.072h.59c.148 0 .249-.068.261-.098l-.006-.961.016-1.014c.077-.46.542-.811 1.102-.811l7.267 1.247h.022c.338 0 .64.133.777.372.103.175.106.393.004.58l-.141.247-.375.646-.437.8-4.883 8.582-.361-.282c-.676-.526-1.6-1.242-2.953-1.3l-.139-.006h-.025c-1.277 0-2.278.322-3.103.957-.184.128-.334.258-.468.379l-.328.305-.29-.342c-.709-.86-1.261-1.907-1.698-2.745-.16-.305-.303-.572-.425-.778-.462-.775-.827-1.394-1.165-1.978-.596-1.017-1.114-1.899-1.947-3.257-.319-.515-.656-1.089-.656-1.089-.141-.228-.156-.482-.031-.702zm21.348 14.733c-.191 0-.349-.051-.456-.079-.444-.144-.875-.19-1.093-.206l-.175-.004c-.45 0-.836.11-1.596.708l-.095.076c-.703.553-1.668 1.301-2.991 1.301-.189 0-.394-.002-.606-.047-1.093-.171-1.913-.8-2.573-1.312-.592-.464-.992-.759-1.389-.777l-.191-.006c-.496 0-.886.118-1.221.367l-.396.315c-.458.401-1.118.963-2.063 1.195-.374.086-.687.126-.98.126-1.008 0-1.774-.481-2.757-1.306-.552-.464-2.048-.738-2.825-.491-.12.035-.284.074-.481.074-.855 0-1.555-.705-1.555-1.575 0-.672.415-1.256 1.049-1.478l.082-.035c1.86-.558 3.764-.215 5.121.92.645.544 1.206.79 1.634.69.206-.045.487-.283.786-.534l.151-.122.39-.299c.858-.666 1.901-.997 3.153-.997l.224.002c1.427.072 2.379.816 3.145 1.414.443.345.861.672 1.226.733h.014c.318 0 .667-.267 1.142-.644 1.023-.802 2.21-1.555 3.995-1.425.347.025 1.021.108 1.789.334.668.227 1.099.827 1.099 1.498 0 .873-.695 1.586-1.557 1.586zm0 0" fill="#3A434E" sketch:type="MSShapeGroup"/></g></svg>
